X:32
T:Pique la baleine
R:Chanson
%C:
Z:<anamnese@laposte.net>
N:tagafolk.abc
M:2/4
L:1/8
Q:1/4=120
K:D
"Bm"B B/ B/ "D"f f |"E"e e "F#"f2 |"Bm"B B B B/ B/ |"G"d B "A"c2 |
"Bm"B B/ B/ "D"f f |"E"e e "F#"f2 |"Bm"B B B B/ B/ |"G"d "A"c "Bm"B2 |
B/ c/ d/ B/ "A"c c |"Bm"B/ c/ d/ B/ "A"c2 |"D"f/ f/ f/ f/ "Em"f/ e/ d/ c/ |"G"d "A"c "Bm"d2 |
B/ c/ d/ B/ "A"c c |"Bm"B/ c/ d/ B/ "A"c2 |"D"f/ f/ f/ f/ "Em"f/ e/ d/ c/ |"G"d "A"c "Bm"B2 ||
W:Pour retrouver ma douce douce amie, Oh! mes bous ! Ouh, l ! Ouh ! l l ! (bis)
W:Pique la baleine, joli baleinier, Pique la baleine, je veux naviguer !      (bis)
W:
W:Aux mille mers j'ai navigu,
W:Oh ! mes bous ! Ouh, l ! Ouh ! l l ! (bis)
W:
W:Des mers du Nord aux mers du Sud.
W:Je l'ai retrouve que j'm'ai ney.
W:Dans les grands fonds, elle m'aseprait.
W:Tous deux ensemble on a pleur.
W:En couple  elle je me suis couch.
